img/logo-github-9.svg

<svg fill="none" height="25" viewBox="0 0 25 25" width="25" xmlns="http://www.w3.org/2000/svg" xmlns:xlink="http://www.w3.org/1999/xlink"><clipPath id="a"><path d="m.751953.5h24v24h-24z"/></clipPath><g clip-path="url(#a)"><path clip-rule="evenodd" d="m12.7153.499512c-6.60555 0-11.963347 5.357798-11.963347 11.963288 0 5.2844 3.449537 9.7615 8.146787 11.3762.58716.0734.80734-.2936.80734-.5872s0-1.0275 0-2.055c-3.30275.7339-4.0367-1.6147-4.0367-1.6147-.51376-1.3945-1.3211-1.7615-1.3211-1.7615-1.10091-.7339.0734-.7339.0734-.7339 1.17431.0734 1.83486 1.2477 1.83486 1.2477 1.10092 1.8348 2.78899 1.3211 3.44954 1.0275.0734-.8073.44032-1.3211.73392-1.6147-2.64218-.2936-5.43117-1.3211-5.43117-5.9449 0-1.3211.44037-2.34866 1.24771-3.22939-.07339-.22019-.51376-1.46789.14679-3.08257 0 0 1.02752-.29358 3.30275 1.2477.95412-.29357 1.98162-.36697 3.00922-.36697 1.0275 0 2.055.14679 3.0091.36697 2.2753-1.54128 3.3028-1.2477 3.3028-1.2477.6605 1.61468.2202 2.86238.1468 3.15596.7339.80734 1.2477 1.9083 1.2477 3.2294 0 4.6238-2.789 5.5779-5.4312 5.8715.4404.367.8073 1.1009.8073 2.2019v3.3027c0 .2936.2202.6606.8074.5872 4.7706-1.6147 8.1468-6.0918 8.1468-11.3762-.0734-6.60549-5.4312-11.963288-12.0367-11.963288z" fill="#000" fill-rule="evenodd"/></g></svg>

<svg width="25" height="25" viewBox="0 0 25 25" fill="none" xmlns="http://www.w3.org/2000/svg">
<g clip-path="url(#clip0_3473_4420)">
<path fill-rule="evenodd" clip-rule="evenodd" d="M12.7153 0.499512C6.10975 0.499512 0.751953 5.85731 0.751953 12.4628C0.751953 17.7472 4.20149 22.2243 8.89874 23.839C9.4859 23.9124 9.70608 23.5454 9.70608 23.2518C9.70608 22.9582 9.70608 22.2243 9.70608 21.1968C6.40333 21.9307 5.66938 19.5821 5.66938 19.5821C5.15562 18.1876 4.34828 17.8206 4.34828 17.8206C3.24737 17.0867 4.42168 17.0867 4.42168 17.0867C5.59599 17.1601 6.25654 18.3344 6.25654 18.3344C7.35746 20.1692 9.04553 19.6555 9.70608 19.3619C9.77948 18.5546 10.1464 18.0408 10.44 17.7472C7.79782 17.4536 5.00883 16.4261 5.00883 11.8023C5.00883 10.4812 5.4492 9.45364 6.25654 8.57291C6.18315 8.35272 5.74278 7.10502 6.40333 5.49034C6.40333 5.49034 7.43085 5.19676 9.70608 6.73804C10.6602 6.44447 11.6877 6.37107 12.7153 6.37107C13.7428 6.37107 14.7703 6.51786 15.7244 6.73804C17.9997 5.19676 19.0272 5.49034 19.0272 5.49034C19.6877 7.10502 19.2474 8.35272 19.174 8.6463C19.9079 9.45364 20.4217 10.5546 20.4217 11.8757C20.4217 16.4995 17.6327 17.4536 14.9905 17.7472C15.4309 18.1142 15.7978 18.8481 15.7978 19.9491C15.7978 21.5637 15.7978 22.8114 15.7978 23.2518C15.7978 23.5454 16.018 23.9124 16.6052 23.839C21.3758 22.2243 24.752 17.7472 24.752 12.4628C24.6786 5.85731 19.3208 0.499512 12.7153 0.499512Z" fill="black"/>
</g>
<defs>
<clipPath id="clip0_3473_4420">
<rect width="24" height="24" fill="white" transform="translate(0.751953 0.5)"/>
</clipPath>
</defs>
</svg>
